X:59
T:Napoleons Grand March.  JHa.59
B:John Hall MS, 1833, Northumberland
Z:Village Music Project 2016 Mike Hicken
N:Evidently part of a band arrangement
N: NB1 Rest added to give correct repeat.
N: NB2.It is not clear what is meant by this bar.
M:C
L:1/8
Q:1/2=80
K:G
"_Solo"g4a4|"_pia"b2 b>b b2 a>g|a2 a>a a2 bc'|b2a2g2z2|"_for"g2g2g2f>g|a2a2a2 z2|Z|g4d2z2|"_pia"g4a4|b2 b>b b2 a>g|a2 a>a a2 b>c'|b2a2g2 z2|
g2g2g2 f>g|a2a2a2 g>f|BcAc B2c2|Z4|"_for"B4 B3G|BGdB BGBd|AcdB ddBd|B4 B3G|
BGdB BGBd|AcdB ddBd|(B3 A/G/) BB (c/B/A/G/)|(.AA/G/) (.FF/E/) D2 B/c/d/B/|c3B dd B/d/c/B/|BB/A/ Bd BdBd|
(cc/B/) cB cBcB|AccB dcBA|B2zd/c/ Bd/c/ Bd/c/|B2z (f/e/) .d2/f/e/ .d2/(f/e/)|dAFA dAFA|!>!d4 !>!d4|!>!d4 d2 "NB1"z2:|
|:"7 NB2"z32z16z8|z4 z2G2|"_pia" GdBd GcdB|B3B G2G2|A2A2 G2G2|D4 z4|A4 z4|G4 Bcde|B4 dcBA|
GGGG D2z2|GdBd BcdB|B3GB2G2|Acec GBdB|F4 z4|A4 (3AGF (3cBA|G4 Bcde|B3B FFBG|A4 G2z2|A4z4|G4 Bcde|B3G z4|gGBd g2 "_ff"G>G|GBGB|G6 z2|D2F2A2F2|B2 B>B B2 G>G|
G2B2G2B2|G6 z2|D2F2A2F2|"_pia".B.B.d.c .B.A.G.F|.B.c.G.A BcdB|B2G2A2F2|
B2c2B2c2|B2 z2z4|B2z2 z4|BGBd BGBd|!>!B4 !>!B4|!>!B4 B2 !fine!:|

